assets/images/icon-github.svg

<svg fill="none" height="20" viewBox="0 0 21 20" width="21" xmlns="http://www.w3.org/2000/svg"><path clip-rule="evenodd" d="m10.7471 0c-5.66477 0-10.252959 4.58819-10.252959 10.2529 0 4.537 2.934899 8.369 7.010449 9.7275.51264.0897.70489-.2179.70489-.487 0-.2435-.01282-1.0509-.01282-1.9096-2.57605.4742-3.24249-.628-3.44755-1.2047-.11535-.2948-.61518-1.2048-1.05093-1.4483-.35885-.1922-.8715-.6664-.01281-.6792.80742-.0128 1.38414.7433 1.57639 1.0509.92276 1.5508 2.39662 1.115 2.98617.8459.08971-.6665.35885-1.115.65362-1.3714-2.28128-.2563-4.66509-1.1406-4.66509-5.06234 0-1.11501.3973-2.03777 1.05093-2.75548-.10253-.25632-.46138-1.30725.10253-2.71703 0 0 .85868-.26914 2.81956 1.05093.82023-.23069 1.69173-.34604 2.56322-.34604.8715 0 1.743.11535 2.5632.34604 1.9609-1.33288 2.8196-1.05093 2.8196-1.05093.5639 1.40978.2051 2.46071.1025 2.71703.6537.71771 1.051 1.62765 1.051 2.75548 0 3.93454-2.3967 4.80604-4.6779 5.06234.3716.3205.692.9356.692 1.8968 0 1.3714-.0128 2.4736-.0128 2.8196 0 .2691.1923.5895.7049.487 4.0499-1.3585 6.9848-5.2034 6.9848-9.7275 0-5.66471-4.5882-10.2529-10.2529-10.2529z" fill="#000" fill-rule="evenodd"/></svg>

<svg width="21" height="20" viewBox="0 0 21 20" fill="none" xmlns="http://www.w3.org/2000/svg">
<path fill-rule="evenodd" clip-rule="evenodd" d="M10.7471 0C5.08233 0 0.494141 4.58819 0.494141 10.2529C0.494141 14.7899 3.42904 18.6219 7.50459 19.9804C8.01723 20.0701 8.20948 19.7625 8.20948 19.4934C8.20948 19.2499 8.19666 18.4425 8.19666 17.5838C5.62061 18.058 4.95417 16.9558 4.74911 16.3791C4.63376 16.0843 4.13393 15.1743 3.69818 14.9308C3.33933 14.7386 2.82668 14.2644 3.68537 14.2516C4.49279 14.2388 5.06951 14.9949 5.26176 15.3025C6.18452 16.8533 7.65838 16.4175 8.24793 16.1484C8.33764 15.4819 8.60678 15.0334 8.90155 14.777C6.62027 14.5207 4.23646 13.6364 4.23646 9.71466C4.23646 8.59965 4.63376 7.67689 5.28739 6.95918C5.18486 6.70286 4.82601 5.65193 5.38992 4.24215C5.38992 4.24215 6.2486 3.97301 8.20948 5.29308C9.02971 5.06239 9.90121 4.94704 10.7727 4.94704C11.6442 4.94704 12.5157 5.06239 13.3359 5.29308C15.2968 3.9602 16.1555 4.24215 16.1555 4.24215C16.7194 5.65193 16.3606 6.70286 16.258 6.95918C16.9117 7.67689 17.309 8.58683 17.309 9.71466C17.309 13.6492 14.9123 14.5207 12.6311 14.777C13.0027 15.0975 13.3231 15.7126 13.3231 16.6738C13.3231 18.0452 13.3103 19.1474 13.3103 19.4934C13.3103 19.7625 13.5026 20.0829 14.0152 19.9804C18.0651 18.6219 21 14.777 21 10.2529C21 4.58819 16.4118 0 10.7471 0Z" fill="black"/>
</svg>
